!!!OTL: ACH JUNGFER ICH WILL IHR WAS AUFZURATHEN
!!!ARE: Europa, Mitteleuropa, Deutschland, Schwedt a.d. Oder
!!!SCT: E1064
!!!YEM: Copyright 1995, estate of Helmut Schaffrath.
**kern
*ICvox
*Ivox
*M2/4
*k[f#]
*G:
{8d
=1
8.g
16g
8g
8g
=2
4.g}
{8a
=3
8.b
16b
8b
8b
=4
4b
8a}
{8g
=5
8.b
16a
8b
8cc
=6
4dd
8gg}
{8dd
=7
4cc
4cc
=8
4b
4r}
=9
{4dd
8dd
8dd
=10
4.ee}
{8dd
=11
8.cc
16b
8cc
8ee
=12
4.dd}
{8cc
=13
4b
8b
8dd
=14
8.dd
16cc
8b}
{8a
=15
4b
4a
=16
4g
4r}
=17
{4dd
8dd
8dd
=18
4.ee}
{8dd
=19
8.cc
16b
8cc
8ee
=20
4.dd}
{8cc
=21
4b
8b
8dd
=22
8.dd
16cc
8b}
{8a
=23
4b
4a
=24
4g
8r}
==
!!!AGN: Raetsel - Lied
!!!ONB: ESAC (Essen Associative Code) Database: ERK3
!!!AMT: simple duple
!!!AIN: vox
!!!EED: Helmut Schaffrath
!!!EEV: 1.0
*-
